X: 31182
T: COTILLION No. 18. NIAGARA SETT tune 2
C:
%R: reel, hornpipe
B: Elias Howe "The Musician's Companion" Part 3 1844 p.118 #2
S: http://imslp.org/wiki/The_Musician's_Companion_(Howe,_Elias)
Z: 2015 John Chambers <jc:trillian.mit.edu>
M: 2/4
L: 1/16
K: C
% - - - - - - - - - - - - - - - - - - - - - - - - - - - - -
G2 |\
c2c2 c2BA | GFED CcBA | Gedc Bgfe | dGAB cege |\
c2c2 c2ce | g2 g4 af | e2fd c2B2 | c6 H|]
e>f |\
g>eg>e c>eg>e | a>fa>f d>fa>f | g>eg>e c>eg>e | B>cA>B G>de>f |\
g>eg>e c>eg>e | a>fa>f d>fa>f | g>ec>e a>fd>f | e>fd>e "^D.C."c2 :|
% - - - - - - - - - - Dance description - - - - - - - - - -
%%begintext align
%% First 4 lead to the right,
%% chassa out,
%% form lines across the hall,
%% all right and left across the hall,
%% ladies all chain across the hall,
%% all forward and back,
%% swing partners to place.
%% Sides the same.
%%endtext
% - - - - - - - - - - - - - - - - - - - - - - - - - - - - -
%%sep 1 1 300
